src/4-icons/right.svg

<svg width="260" height="260" viewBox="0 0 260 260" fill="none" xmlns="http://www.w3.org/2000/svg">
<path d="M58.3008 130.041C58.3008 133.907 61.4348 137.041 65.3008 137.041H177.8L135.749 179.091C133.016 181.825 133.016 186.257 135.749 188.991C138.483 191.724 142.915 191.724 145.649 188.991L199.389 135.251C200.789 133.851 201.472 132.005 201.438 130.171C201.472 128.336 200.789 126.491 199.389 125.091L145.649 71.3512C142.915 68.6175 138.483 68.6175 135.749 71.3512C133.016 74.0849 133.016 78.517 135.749 81.2507L177.54 123.041H65.3008C61.4348 123.041 58.3008 126.175 58.3008 130.041Z" fill="black"/>
<path fill-rule="evenodd" clip-rule="evenodd" d="M0 130C0 201.797 58.203 260 130 260C201.797 260 260 201.797 260 130C260 58.203 201.797 0 130 0C58.203 0 0 58.203 0 130ZM14 130C14 194.065 65.935 246 130 246C194.065 246 246 194.065 246 130C246 65.935 194.065 14 130 14C65.935 14 14 65.935 14 130Z" fill="black"/>
</svg>

<svg width="260" height="260" viewBox="0 0 260 260" fill="none" xmlns="http://www.w3.org/2000/svg"><path d="M58.3 130.041a7 7 0 0 0 7 7h112.5l-42.051 42.05a7.002 7.002 0 0 0 0 9.9 7.002 7.002 0 0 0 9.9 0l53.74-53.74a6.98 6.98 0 0 0 2.049-5.08 6.979 6.979 0 0 0-2.049-5.08l-53.74-53.74a7 7 0 0 0-9.9 9.9l41.791 41.79H65.3a7 7 0 0 0-7 7Z" fill="#000"/><path fill-rule="evenodd" clip-rule="evenodd" d="M0 130c0 71.797 58.203 130 130 130s130-58.203 130-130S201.797 0 130 0 0 58.203 0 130Zm14 0c0 64.065 51.935 116 116 116s116-51.935 116-116S194.065 14 130 14 14 65.935 14 130Z" fill="#000"/></svg>
